X: 1
T: New Mown Meadows
M: 4/4
L: 1/8
S: "Music from Ireland 2"
R: reel
Z: B.Black
K: Ador
|:\
A2AD EDEG | AcBG AGEG | ADD2 EDEF | G2AG EGG2 |\
A2AD EDEG | AcBG AGEG | c2cA B2BA | G2AG EGG2 :|
|:\
Bdd2 eddB | AcBG AEGE | Bdd2 eddB | G2AG EGG2 |\
BddB ecdB | AcBG AEE2 | c2cA B2BA | G2AG EGG2 :|
